icons/pumpkin/pumpkin-64px.svg

<?xml version="1.0" encoding="UTF-8" standalone="no"?>
<svg width="64px" height="64px" viewBox="0 0 64 64" version="1.1" xmlns="http://www.w3.org/2000/svg" xmlns:xlink="http://www.w3.org/1999/xlink" xmlns:sketch="http://www.bohemiancoding.com/sketch/ns">
    <!-- Generator: Sketch 3.4.4 (17249) - http://www.bohemiancoding.com/sketch -->
    <title>Pumpkin Copy</title>
    <desc>Created with Sketch.</desc>
    <defs></defs>
    <g id="Page-1" stroke="none" stroke-width="1" fill="none" fill-rule="evenodd" sketch:type="MSPage">
        <g id="Pumpkin-64x64" sketch:type="MSArtboardGroup">
            <g id="Pumpkin-Copy" sketch:type="MSLayerGroup" transform="translate(1.000000, 0.000000)">
                <path d="M29.0915682,24.3792318 C29.0915682,24.3792318 20.884537,12.9475911 29.8793286,0 L37.4388989,5.17643229 C37.4388989,5.17643229 31.8584955,12.2496745 36.9935864,24.2486979 C42.1286774,36.2477214 29.0915682,24.3792318 29.0915682,24.3792318 Z" id="Stem" fill="#8C6E3D" sketch:type="MSShapeGroup"></path>
                <path d="M44.8335349,62.7312117 C39.3157766,62.7312117 41.6063205,53.5221731 41.6063205,42.0271401 C41.6063205,30.5321071 46.0793473,21.2135417 51.5971056,21.2135417 C57.1148638,21.2135417 61.5878906,30.5321071 61.5878906,42.0271401 C61.5878906,53.5221731 50.3512931,62.7312117 44.8335349,62.7312117 Z" id="Pumpkin-Slice" stroke="#CE8B1B" stroke-width="2" fill="#F4A11A" sketch:type="MSShapeGroup"></path>
                <path d="M16.9835224,62.7312117 C22.5012806,62.7312117 20.2107368,53.5221731 20.2107368,42.0271401 C20.2107368,30.5321071 15.73771,21.2135417 10.2199517,21.2135417 C4.7021935,21.2135417 0.229166667,30.5321071 0.229166667,42.0271401 C0.229166667,53.5221731 11.4657642,62.7312117 16.9835224,62.7312117 Z" id="Pumpkin-Slice" stroke="#CE8B1B" stroke-width="2" fill="#F4A11A" sketch:type="MSShapeGroup"></path>
                <ellipse id="Pumpkin-Slice" stroke="#CE8B1B" stroke-width="2" fill="#F3A11A" sketch:type="MSShapeGroup" cx="21.9603814" cy="40.2950846" rx="11.5047607" ry="22.5594076"></ellipse>
                <ellipse id="Pumpkin-Slice" stroke="#CE8B1B" stroke-width="2" fill="#F3A11A" sketch:type="MSShapeGroup" cx="39.8566759" cy="40.2950846" rx="11.5047607" ry="22.5594076"></ellipse>
                <ellipse id="Pumpkin-Slice" stroke="#CE8B1B" stroke-width="2" fill="#F4A11A" sketch:type="MSShapeGroup" cx="30.9085286" cy="39.4272461" rx="10.226454" ry="23.4272461"></ellipse>
            </g>
        </g>
    </g>
</svg>

<svg width="64" height="64" viewBox="0 0 64 64" xmlns="http://www.w3.org/2000/svg"><title>Pumpkin Copy</title><g transform="translate(1)" fill="none" fill-rule="evenodd"><path d="M29.092 24.38S20.885 12.947 29.88 0l7.56 5.176s-5.582 7.074-.446 19.073c5.135 11.998-7.902.13-7.902.13z" fill="#8C6E3D"/><path d="M44.834 62.73c-5.518 0-3.228-9.208-3.228-20.703s4.473-20.813 9.99-20.813c5.52 0 9.992 9.318 9.992 20.813S50.35 62.73 44.834 62.73zM16.984 62.73c5.517 0 3.227-9.208 3.227-20.703s-4.472-20.813-9.99-20.813S.23 30.532.23 42.027 11.465 62.73 16.983 62.73z" stroke="#CE8B1B" stroke-width="2" fill="#F4A11A"/><ellipse stroke="#CE8B1B" stroke-width="2" fill="#F3A11A" cx="21.96" cy="40.295" rx="11.505" ry="22.559"/><ellipse stroke="#CE8B1B" stroke-width="2" fill="#F3A11A" cx="39.857" cy="40.295" rx="11.505" ry="22.559"/><ellipse stroke="#CE8B1B" stroke-width="2" fill="#F4A11A" cx="30.909" cy="39.427" rx="10.226" ry="23.427"/></g></svg>
